src/icons/svg/you-yuan.svg

<?xml version="1.0" standalone="no"?><!DOCTYPE svg PUBLIC "-//W3C//DTD SVG 1.1//EN" "http://www.w3.org/Graphics/SVG/1.1/DTD/svg11.dtd"><svg t="1597382187076" class="icon" viewBox="0 0 1024 1024" version="1.1" xmlns="http://www.w3.org/2000/svg" p-id="23923" xmlns:xlink="http://www.w3.org/1999/xlink" width="200" height="200"><defs><style type="text/css"></style></defs><path d="M93.090909 512c0-230.981818 187.927273-418.909091 418.909091-418.909091s418.909091 187.927273 418.909091 418.909091-187.927273 418.909091-418.909091 418.909091S93.090909 742.981818 93.090909 512m907.636364 0c0-269.917091-218.810182-488.727273-488.727273-488.727273S23.272727 242.082909 23.272727 512s218.810182 488.727273 488.727273 488.727273 488.727273-218.810182 488.727273-488.727273m-348.392728 35.467636a34.932364 34.932364 0 0 0 1.373091-49.384727l-186.181818-196.305454a34.909091 34.909091 0 0 0-50.664727 48.058181l162.117818 170.938182-160.814545 152.040727A34.792727 34.792727 0 0 0 407.272727 698.181818a34.909091 34.909091 0 0 0 58.903273 25.344l186.181818-176.058182z"  p-id="23924"></path></svg>

<svg class="icon" viewBox="0 0 1024 1024" xmlns="http://www.w3.org/2000/svg" width="200" height="200"><defs><style/></defs><path d="M93.09 512C93.09 281.018 281.019 93.09 512 93.09S930.91 281.019 930.91 512 742.981 930.91 512 930.91 93.09 742.981 93.09 512m907.637 0c0-269.917-218.81-488.727-488.727-488.727S23.273 242.083 23.273 512 242.083 1000.727 512 1000.727 1000.727 781.917 1000.727 512m-348.392 35.468a34.932 34.932 0 0 0 1.373-49.385L467.526 301.777a34.91 34.91 0 0 0-50.665 48.059L578.98 520.774l-160.815 152.04a34.793 34.793 0 0 0-10.891 25.368 34.91 34.91 0 0 0 58.903 25.344l186.182-176.058z"/></svg>
